X:1
T:Jul, jul, strålande jul
T:Jul, jul, strålande jul 
T:(Edv. Evers.)
T:Gustaf Nordqvist
C:Gustaf Nordqvist
%%score [ 1 2 3 4 ]
L:1/8
Q:1/4=60
M:6/8
K:Bb
V:1 treble-8 nm="Tenor" snm="T."
V:2 treble-8 nm="Tenor" snm="T."
V:3 bass nm="Bass" snm="B."
V:4 bass nm="Bass" snm="B."
V:1
|:!p!"^Ej för långsamt." d3 c3 |!<(! d>e!<)!!>(!f c3!>)! |!<(! def f2!<)! e |!>(! e3 d3!>)! | %4
w: Jul, jul,|strå- lan- de jul,|glans ö- ver vi- ta|sko- gar,|
w: Kom, kom,|sig- na- de jul!|Sänk di- na vi- ta|vin- gar|
!mf!!<(! g>gg fcf!<)! |!>(! g>ag f3!>)! | e>e!<(!e dA!<)!d | e>!>(!fe d3!>)! | B>!<(!BB f>f!<)!f | %9
w: him- mel- ens kro- nor med|gnist- ran- de ljus,|glim- man- de bå- gar i|al- la Guds hus,|psalm som är sjun- gen från|
w: ö- * ver strid- er- nas|blod * och larm,|ö- ver all suc- kan ur|män- i- sko- barm,|ö- ver de släk- ten som|
!>(! d2 d B3!>)! | c>!<(!Bc d>!<)!cB |"^poco rit."!>(! c>Bc!>)! !fermata!d3 |!p!"^a tempo" d3 c3 | %13
w: tid till tid,|e- vi- ga läng- tan till|ljus * och frid!|Jul, jul,|
w: går till ro,|ö- ver de ung- * as|dag- an- de bo!|Kom, kom,|
!<(! d>e!<)!f!>(! c3!>)! | d!<(!ef f2!<)! e |"^poco rit."!>(! c3!>)! !fermata!B3 :| %16
w: strå- lan- de jul:|glans ö- ver vi- ta|sko- gar!|
w: sig- na- de jul,|sänk di- na vi- ta|vin- gar!|
V:2
|:!p! B3 B3 |!<(! B>B!<)!!>(!B B3!>)! |!<(! BBB B2!<)! B |!>(! B2 A B3!>)! |!mf!!<(! B>Be cAc!<)! | %5
w: Jul, jul,|strå- lan- de jul,|glans ö- ver vi- ta|sko- * gar,|him- mel- ens kro- nor med|
w: Kom, kom,|sig- na- de jul!|Sänk di- na vi- ta|vin- * gar|ö- * ver strid- er- nas|
!>(! e>ee c3!>)! | c>c!<(!B A^F!<)!A | c>!>(!cB A3!>)! | B>!<(!AG B>A!<)!B |!>(! A2 A G3!>)! | %10
w: gnist- ran- de ljus,|glim- man- de bå- gar i|al- la Guds hus,|psalm som är sjun- gen från|tid till tid,|
w: blod * och larm,|ö- ver all suc- kan ur|män- i- sko- barm,|ö- ver de släk- ten som|går till ro,|
 G>!<(!GA B>!<)!AG |!>(! G->GA!>)! !fermata!A3 |!p! B3 B3 |!<(! B>B!<)!B!>(! B3!>)! | %14
w: e- vi- ga läng- tan till|ljus * och frid!|Jul, jul,|strå- lan- de jul:|
w: ö- ver de ung- * as|dag- an- de bo!|Kom, kom,|sig- na- de jul,|
 B!<(!BB B2!<)! B |!>(! A3!>)! !fermata!F3 :| %16
w: glans ö- ver vi- ta|sko- gar!|
w: sänk di- na vi- ta|vin- gar!|
V:3
|:!p! F,3 _G,3 |!<(! F,>F,!<)!!>(!F, _G,3!>)! |!<(! F,G,A, A,2!<)! G, |!>(! G,2 _G, F,3!>)! | %4
w: Jul, jul,|strå- lan- de jul,|glans ö- ver vi- ta|sko- * gar,|
w: Kom, kom,|sig- na- de jul!|Sänk di- na vi- ta|vin- * gar|
!mf!!<(! E,>E,B, A,F,A,!<)! |!>(! B,>CB, A,3!>)! | G,>A,!<(!G, ^F,D,!<)!F, | G,>!>(!A,G, ^F,3!>)! | %8
w: him- mel- ens kro- nor med|gnist- ran- de ljus,|glim- man- de bå- gar i|al- la Guds hus,|
w: ö- * ver strid- er- nas|blod * och larm,|ö- ver all suc- kan ur|män- i- sko- barm,|
 G,>!<(!F,E, F,>E,!<)!F, |!>(! F,2 F, E,3!>)! | E,>!<(!E,E, G,>!<)!E,D, | %11
w: psalm som är sjun- gen från|tid till tid,|e- vi- ga läng- tan till|
w: ö- ver de släk- ten som|går till ro,|ö- ver de ung- * as|
!>(! G,->G,G,!>)! !fermata!^F,3 |!p! F,3 _G,3 |!<(! F,>F,!<)!F,!>(! _G,3!>)! | %14
w: ljus * och frid!|Jul, jul,|strå- lan- de jul:|
w: dag- an- de bo!|Kom, kom,|sig- na- de jul,|
 F,!<(!G,A, A,2!<)! G, |!>(! G,F,E,!>)! !fermata!D,3 :| %16
w: glans ö- ver vi- ta|sko- * * gar!|
w: sänk di- na vi- ta|vin- * * gar!|
V:4
|:!p! B,,3 E,3 |!<(! B,,>C,!<)!!>(!D, E,3!>)! |!<(! B,,B,,B,, B,,2!<)! B,, |!>(! B,,3 B,,3!>)! | %4
w: Jul, jul,|strå- lan- de jul,|glans ö- ver vi- ta|sko- gar,|
w: Kom, kom,|sig- na- de jul!|Sänk di- na vi- ta|vin- gar|
!mf!!<(! E,>E,E, F,F,F,!<)! |!>(! E,>E,E, F,3!>)! | C,>C,!<(!C, D,D,!<)!D, | C,>!>(!C,C, D,3!>)! | %8
w: him- mel- ems kro- nor med|gnist- ran- de ljus,|glim- man- de bå- gar i|al- la Guds hus,|
w: ö- * ver strid- er- nas|blod * och larm,|ö- ver all suc- kan ur|män- i- sko- barm,|
 G,>!<(!F,E, D,>C,!<)!D, |!>(! F,2 F, E,3!>)! | E,>!<(!D,C, G,,>!<)!G,,G,, | %11
w: psalm som är sjun- gen från|tid till tid,|e- vi- ga läng- tan till|
w: ö- ver de släk- ten som|går till ro,|ö- ver de ung- * as|
!>(! E,->E,E,!>)! !fermata!D,3 |!p! B,,3 E,3 |!<(! B,,>C,!<)!D,!>(! E,3!>)! | %14
w: ljus * och frid!|Jul, jul,|strå- lan- de jul:|
w: dag- an- de bo!|Kom, kom,|sig- na- de jul,|
 B,,!<(!B,,B,, D,2!<)! E, |!>(! G,F,F,,!>)! !fermata!B,,3 :| %16
w: glans ö- ver vi- ta|sko- * * gar!|
w: sänk di- na vi- ta|vin- * * gar!|

